.local/share/icons/Gruvbox-Plus-Dark/places/16/bookmark-missing.svg

<svg width="16" height="16" version="1.1" xmlns="http://www.w3.org/2000/svg">
  <defs>
    <style id="current-color-scheme" type="text/css">.ColorScheme-Text { color:#ebdbb2; } .ColorScheme-Highlight { color:#458588; } .ColorScheme-NegativeText { color:#fb4934; }</style>
  </defs>
  <path class="ColorScheme-NegativeText" d="m13.65 1.529c-1.31-0.606-2.875-0.449-4.079 0.276l-1.31 2.863 2.595 2.26-2.716 3.671 0.994-3.419-3.326-2.245 0.979-2.882c-1.238-0.927-2.987-1.193-4.434-0.524-2.17 1.007-3.207 3.578-1.493 6.614 1.218 2.158 3.377 3.786 7.142 6.702 3.765-2.916 5.923-4.543 7.142-6.702 1.714-3.036 0.676-5.607-1.494-6.614z" fill="currentColor"/>
</svg>

<svg xmlns="http://www.w3.org/2000/svg" style="isolation:isolate" width="16" height="16" viewBox="0 0 16 16">
 <path fill="#fb4934" d="M 13.648 1.529 C 12.338 0.923 10.773 1.08 9.569 1.805 L 8.259 4.668 L 10.854 6.928 L 8.138 10.599 L 9.132 7.18 L 5.806 4.935 L 6.785 2.053 C 5.547 1.126 3.798 0.86 2.351 1.529 C 0.181 2.536 -0.856 5.107 0.858 8.143 C 2.076 10.301 4.235 11.929 8 14.845 C 11.765 11.929 13.923 10.302 15.142 8.143 C 16.856 5.107 15.818 2.536 13.648 1.529 Z"/>
</svg>
